;FLAVOR:Marlin
;TIME:3204
;Filament used: 0.908608m
;Layer height: 0.2
;MINX:84.7
;MINY:109.5
;MINZ:0.2
;MAXX:150.3
;MAXY:125.5
;MAXZ:100
;Generated with Cura_SteamEngine 5.2.2
M140 S60
M105
M190 S60
M104 S225
M105
M109 S225
M82 ;absolute extrusion mode
; Ender 3 Custom Start G-code
G92 E0 ; Reset Extruder
G28 ; Home all axes
G1 Z2.0 F3000 ; Move Z Axis up little to prevent scratching of Heat Bed
G1 X0.1 Y20 Z0.3 F5000.0 ; Move to start position
G1 X0.1 Y200.0 Z0.3 F1500.0 E15 ; Draw the first line
G1 X0.4 Y200.0 Z0.3 F5000.0 ; Move to side a little
G1 X0.4 Y20 Z0.3 F1500.0 E30 ; Draw the second line
G92 E0 ; Reset Extruder
G1 Z2.0 F3000 ; Move Z Axis up little to prevent scratching of Heat Bed
G1 X5 Y20 Z0.3 F5000.0 ; Move over to prevent blob squish
G92 E0
G92 E0
G1 F2700 E-5
;LAYER_COUNT:500
;LAYER:0
M107
G0 F6000 X87.722 Y111.134 Z0.2
;TYPE:SKIRT
G1 F2700 E0
G1 F1200 X88.37 Y110.683 E0.02626
G1 X89.061 Y110.299 E0.05255
G1 X89.786 Y109.987 E0.0788
G1 X90.539 Y109.75 E0.10506
G1 X91.313 Y109.591 E0.13134
G1 X92.098 Y109.51 E0.15759
G1 X92.5 Y109.5 E0.17096
G1 X142.5 Y109.5 E1.83397
G1 X143.289 Y109.54 E1.86025
G1 X144.069 Y109.659 E1.88649
G1 X144.834 Y109.857 E1.91277
G1 X145.574 Y110.131 E1.93902
G1 X146.283 Y110.479 E1.96529
G1 X146.954 Y110.897 E1.99158
G1 X147.578 Y111.38 E2.01782
G1 X148.151 Y111.923 E2.04408
G1 X148.666 Y112.522 E2.07035
G1 X149.117 Y113.17 E2.09661
G1 X149.501 Y113.861 E2.12291
G1 X149.813 Y114.586 E2.14916
G1 X150.05 Y115.339 E2.17541
G1 X150.209 Y116.113 E2.2017
G1 X150.29 Y116.898 E2.22794
G1 X150.3 Y117.7 E2.25462
G1 X150.26 Y118.489 E2.2809
G1 X150.141 Y119.269 E2.30714
G1 X149.943 Y120.034 E2.33342
G1 X149.669 Y120.774 E2.35967
G1 X149.321 Y121.483 E2.38594
G1 X148.903 Y122.154 E2.41223
G1 X148.42 Y122.778 E2.43847
G1 X147.877 Y123.351 E2.46473
G1 X147.278 Y123.866 E2.491
G1 X146.63 Y124.317 E2.51726
G1 X145.939 Y124.701 E2.54356
G1 X145.214 Y125.013 E2.56981
G1 X144.461 Y125.25 E2.59606
G1 X143.687 Y125.409 E2.62235
G1 X142.902 Y125.49 E2.64859
G1 X142.5 Y125.5 E2.66197
G1 X92.5 Y125.5 E4.32497
G1 X91.711 Y125.46 E4.35125
G1 X90.931 Y125.341 E4.37749
G1 X90.166 Y125.143 E4.40378
G1 X89.426 Y124.869 E4.43002
G1 X88.717 Y124.521 E4.45629
G1 X88.046 Y124.103 E4.48258
G1 X87.422 Y123.62 E4.50883
G1 X86.849 Y123.077 E4.53509
G1 X86.334 Y122.478 E4.56136
G1 X85.883 Y121.83 E4.58762
G1 X85.499 Y121.139 E4.61391
G1 X85.187 Y120.414 E4.64016
G1 X84.95 Y119.661 E4.66642
G1 X84.791 Y118.887 E4.6927
G1 X84.71 Y118.102 E4.71895
G1 X84.7 Y117.3 E4.74562
G1 X84.74 Y116.511 E4.7719
G1 X84.859 Y115.731 E4.79814
G1 X85.057 Y114.966 E4.82443
G1 X85.331 Y114.226 E4.85067
G1 X85.679 Y113.517 E4.87694
G1 X86.097 Y112.846 E4.90323
G1 X86.58 Y112.222 E4.92948
G1 X87.123 Y111.649 E4.95574
G1 X87.722 Y111.134 E4.98201
G0 F6000 X88.111 Y111.342
G1 F1200 X88.753 Y110.919 E5.00758
G1 X89.436 Y110.564 E5.03318
G1 X90.151 Y110.283 E5.05873
G1 X90.893 Y110.077 E5.08435
G1 X91.651 Y109.949 E5.10991
G1 X92.5 Y109.9 E5.1382
G1 X142.5 Y109.9 E6.80121
G1 X143.268 Y109.94 E6.82678
G1 X144.028 Y110.059 E6.85237
G1 X144.771 Y110.257 E6.87795
G1 X145.49 Y110.531 E6.90354
G1 X146.176 Y110.878 E6.92911
G1 X146.823 Y111.294 E6.95469
G1 X147.423 Y111.775 E6.98027
G1 X147.97 Y112.316 E7.00586
G1 X148.458 Y112.911 E7.03145
G1 X148.881 Y113.553 E7.05702
G1 X149.236 Y114.236 E7.08262
G1 X149.517 Y114.951 E7.10817
G1 X149.723 Y115.693 E7.13379
G1 X149.851 Y116.451 E7.15936
G1 X149.9 Y117.3 E7.18764
G1 X149.9 Y117.7 E7.20094
G1 X149.86 Y118.468 E7.22652
G1 X149.741 Y119.228 E7.25211
G1 X149.543 Y119.971 E7.27768
G1 X149.269 Y120.69 E7.30327
G1 X148.922 Y121.376 E7.32884
G1 X148.506 Y122.023 E7.35443
G1 X148.025 Y122.623 E7.38
G1 X147.484 Y123.17 E7.40559
G1 X146.889 Y123.658 E7.43119
G1 X146.247 Y124.081 E7.45676
G1 X145.564 Y124.436 E7.48236
G1 X144.849 Y124.717 E7.50791
G1 X144.107 Y124.923 E7.53353
G1 X143.349 Y125.051 E7.55909
G1 X142.5 Y125.1 E7.58738
G1 X92.5 Y125.1 E9.25038
G1 X91.732 Y125.06 E9.27596
G1 X90.972 Y124.941 E9.30155
G1 X90.229 Y124.743 E9.32712
G1 X89.51 Y124.469 E9.35272
G1 X88.824 Y124.122 E9.37828
G1 X88.177 Y123.706 E9.40387
G1 X87.577 Y123.225 E9.42945
G1 X87.03 Y122.684 E9.45503
G1 X86.542 Y122.089 E9.48063
G1 X86.119 Y121.447 E9.5062
G1 X85.764 Y120.764 E9.5318
G1 X85.483 Y120.049 E9.55735
G1 X85.277 Y119.307 E9.58297
G1 X85.149 Y118.549 E9.60853
G1 X85.1 Y117.7 E9.63682
G1 X85.1 Y117.3 E9.65012
G1 X85.14 Y116.532 E9.6757
G1 X85.259 Y115.772 E9.70129
G1 X85.457 Y115.029 E9.72686
G1 X85.731 Y114.31 E9.75245
G1 X86.078 Y113.624 E9.77802
G1 X86.494 Y112.977 E9.80361
G1 X86.975 Y112.377 E9.82918
G1 X87.516 Y111.83 E9.85477
G1 X88.111 Y111.342 E9.88037
G0 F6000 X88.498 Y111.557
G1 F1200 X89.134 Y111.162 E9.90527
G1 X89.808 Y110.838 E9.93014
G1 X90.513 Y110.588 E9.95502
G1 X91.241 Y110.414 E9.97991
G1 X91.983 Y110.319 E10.0048
G1 X92.5 Y110.3 E10.022
G1 X142.5 Y110.3 E11.68501
G1 X143.247 Y110.34 E11.70989
G1 X143.985 Y110.459 E11.73475
G1 X144.707 Y110.657 E11.75965
G1 X145.403 Y110.93 E11.78452
G1 X146.066 Y111.277 E11.80941
G1 X146.689 Y111.692 E11.83431
G1 X147.263 Y112.171 E11.85917
G1 X147.784 Y112.708 E11.88406
G1 X148.243 Y113.298 E11.90892
G1 X148.638 Y113.934 E11.93382
G1 X148.962 Y114.608 E11.95869
G1 X149.212 Y115.313 E11.98357
G1 X149.386 Y116.041 E12.00847
G1 X149.481 Y116.783 E12.03335
G1 X149.5 Y117.3 E12.05056
G1 X149.5 Y117.7 E12.06386
G1 X149.46 Y118.447 E12.08874
G1 X149.341 Y119.185 E12.1136
G1 X149.143 Y119.907 E12.1385
G1 X148.87 Y120.603 E12.16337
G1 X148.523 Y121.266 E12.18826
G1 X148.108 Y121.889 E12.21316
G1 X147.629 Y122.463 E12.23802
G1 X147.092 Y122.984 E12.26291
G1 X146.502 Y123.443 E12.28777
G1 X145.866 Y123.838 E12.31267
G1 X145.192 Y124.162 E12.33754
G1 X144.487 Y124.412 E12.36242
G1 X143.759 Y124.586 E12.38732
G1 X143.017 Y124.681 E12.4122
G1 X142.5 Y124.7 E12.42941
G1 X92.5 Y124.7 E14.09241
G1 X91.753 Y124.66 E14.11729
G1 X91.015 Y124.541 E14.14216
G1 X90.293 Y124.343 E14.16706
G1 X89.597 Y124.07 E14.19192
G1 X88.934 Y123.723 E14.21681
G1 X88.311 Y123.308 E14.24171
G1 X87.737 Y122.829 E14.26658
G1 X87.216 Y122.292 E14.29146
G1 X86.757 Y121.702 E14.31632
G1 X86.362 Y121.066 E14.34122
G1 X86.038 Y120.392 E14.3661
G1 X85.788 Y119.687 E14.39098
G1 X85.614 Y118.959 E14.41587
G1 X85.519 Y118.217 E14.44075
G1 X85.5 Y117.7 E14.45796
G1 X85.5 Y117.3 E14.47126
G1 X85.54 Y116.553 E14.49614
G1 X85.659 Y115.815 E14.52101
G1 X85.857 Y115.093 E14.54591
G1 X86.13 Y114.397 E14.57077
G1 X86.477 Y113.734 E14.59566
G1 X86.892 Y113.111 E14.62056
G1 X87.371 Y112.537 E14.64543
G1 X87.908 Y112.016 E14.67031
G1 X88.498 Y111.557 E14.69517
G0 F6000 X88.884 Y111.779
G1 F1200 X89.513 Y111.415 E14.71935
G1 X90.178 Y111.122 E14.74352
G1 X90.871 Y110.904 E14.76768
G1 X91.583 Y110.764 E14.79181
G1 X92.5 Y110.7 E14.82239
G1 X142.5 Y110.7 E16.48539
G1 X143.225 Y110.74 E16.50954
G1 X143.942 Y110.859 E16.53372
G1 X144.641 Y111.057 E16.55788
G1 X145.314 Y111.33 E16.58204
G1 X145.953 Y111.675 E16.60619
G1 X146.55 Y112.089 E16.63035
G1 X147.098 Y112.565 E16.6545
G1 X147.591 Y113.099 E16.67867
G1 X148.021 Y113.684 E16.70282
G1 X148.385 Y114.313 E16.72699
G1 X148.678 Y114.978 E16.75116
G1 X148.896 Y115.671 E16.77532
G1 X149.036 Y116.383 E16.79945
G1 X149.1 Y117.3 E16.83003
G1 X149.1 Y117.7 E16.84333
G1 X149.06 Y118.425 E16.86748
G1 X148.941 Y119.142 E16.89166
G1 X148.743 Y119.841 E16.91582
G1 X148.47 Y120.514 E16.93998
G1 X148.125 Y121.153 E16.96413
G1 X147.711 Y121.75 E16.98829
G1 X147.235 Y122.298 E17.01243
G1 X146.701 Y122.791 E17.03661
G1 X146.116 Y123.221 E17.06076
G1 X145.487 Y123.585 E17.08493
G1 X144.822 Y123.878 E17.1091
G1 X144.129 Y124.096 E17.13326
G1 X143.417 Y124.236 E17.15739
G1 X142.5 Y124.3 E17.18797
G1 X92.5 Y124.3 E18.85097
G1 X91.775 Y124.26 E18.87512
G1 X91.058 Y124.141 E18.8993
G1 X90.359 Y123.943 E18.92346
G1 X89.686 Y123.67 E18.94762
G1 X89.047 Y123.325 E18.97177
G1 X88.45 Y122.911 E18.99593
G1 X87.902 Y122.435 E19.02008
G1 X87.409 Y121.901 E19.04425
G1 X86.979 Y121.316 E19.0684
G1 X86.615 Y120.687 E19.09257
G1 X86.322 Y120.022 E19.11674
G1 X86.104 Y119.329 E19.1409
G1 X85.964 Y118.617 E19.16504
G1 X85.9 Y117.7 E19.19561
G1 X85.9 Y117.3 E19.20891
G1 X85.94 Y116.575 E19.23306
G1 X86.059 Y115.858 E19.25724
G1 X86.257 Y115.159 E19.2814
G1 X86.53 Y114.486 E19.30556
G1 X86.875 Y113.847 E19.32971
G1 X87.289 Y113.25 E19.35387
G1 X87.765 Y112.702 E19.37801
G1 X88.299 Y112.209 E19.40219
G1 X88.884 Y111.779 E19.42634
G0 F6000 X89.268 Y112.009
G1 F1200 X89.889 Y111.677 E19.44976
G1 X90.543 Y111.417 E19.47316
G1 X91.223 Y111.233 E19.49659
G1 X91.919 Y111.127 E19.52001
G1 X92.5 Y111.1 E19.53936
G1 X142.5 Y111.1 E21.20236
G1 X143.203 Y111.14 E21.22578
G1 X143.897 Y111.259 E21.2492
G1 X144.572 Y111.457 E21.2726
G1 X145.221 Y111.729 E21.296
G1 X145.835 Y112.074 E21.31943
G1 X146.406 Y112.485 E21.34283
G1 X146.927 Y112.959 E21.36625
G1 X147.391 Y113.489 E21.38968
G1 X147.791 Y114.068 E21.41309
G1 X148.123 Y114.689 E21.43651
G1 X148.383 Y115.343 E21.45992
G1 X148.567 Y116.023 E21.48335
G1 X148.673 Y116.719 E21.50677
G1 X148.7 Y117.3 E21.52611
G1 X148.7 Y117.7 E21.53941
G1 X148.66 Y118.403 E21.56283
G1 X148.541 Y119.097 E21.58625
G1 X148.343 Y119.772 E21.60965
G1 X148.071 Y120.421 E21.63305
G1 X147.726 Y121.035 E21.65648
G1 X147.315 Y121.606 E21.67988
G1 X146.841 Y122.127 E21.70331
G1 X146.311 Y122.591 E21.72673
G1 X145.732 Y122.991 E21.75014
G1 X145.111 Y123.323 E21.77356
G1 X144.457 Y123.583 E21.79697
G1 X143.777 Y123.767 E21.8204
G1 X143.081 Y123.873 E21.84382
G1 X142.5 Y123.9 E21.86316
G1 X92.5 Y123.9 E23.52617
G1 X91.797 Y123.86 E23.54959
G1 X91.103 Y123.741 E23.57301
G1 X90.428 Y123.543 E23.5964
G1 X89.779 Y123.271 E23.61981
G1 X89.165 Y122.926 E23.64323
G1 X88.594 Y122.515 E23.66663
G1 X88.073 Y122.041 E23.69006
G1 X87.609 Y121.511 E23.71349
G1 X87.209 Y120.932 E23.7369
G1 X86.877 Y120.311 E23.76032
G1 X86.617 Y119.657 E23.78372
G1 X86.433 Y118.977 E23.80715
G1 X86.327 Y118.281 E23.83057
G1 X86.3 Y117.7 E23.84992
G1 X86.3 Y117.3 E23.86322
G1 X86.34 Y116.597 E23.88664
G1 X86.459 Y115.903 E23.91006
G1 X86.657 Y115.228 E23.93346
G1 X86.929 Y114.579 E23.95686
G1 X87.274 Y113.965 E23.98028
G1 X87.685 Y113.394 E24.00368
G1 X88.159 Y112.873 E24.02711
G1 X88.689 Y112.409 E24.05054
G1 X89.268 Y112.009 E24.07395
G0 F6000 X89.65 Y112.248
G1 F1200 X90.262 Y111.949 E24.0966
G1 X90.904 Y111.724 E24.11923
G1 X91.569 Y111.575 E24.14189
G1 X92.5 Y111.5 E24.17296
G1 X142.5 Y111.5 E25.83597
G1 X143.18 Y111.54 E25.85862
G1 X143.85 Y111.659 E25.88126
G1 X144.502 Y111.856 E25.90391
G1 X145.126 Y112.128 E25.92655
G1 X145.714 Y112.472 E25.94921
G1 X146.258 Y112.882 E25.97186
G1 X146.749 Y113.353 E25.99449
G1 X147.183 Y113.878 E26.01715
G1 X147.552 Y114.45 E26.03979
G1 X147.851 Y115.062 E26.06244
G1 X148.076 Y115.704 E26.08507
G1 X148.225 Y116.369 E26.10774
G1 X148.3 Y117.3 E26.1388
G1 X148.3 Y117.7 E26.15211
G1 X148.26 Y118.38 E26.17476
G1 X148.141 Y119.05 E26.1974
G1 X147.944 Y119.702 E26.22005
G1 X147.672 Y120.326 E26.24269
G1 X147.328 Y120.914 E26.26535
G1 X146.918 Y121.458 E26.288
G1 X146.447 Y121.949 E26.31063
G1 X145.922 Y122.383 E26.33329
G1 X145.35 Y122.752 E26.35593
G1 X144.738 Y123.051 E26.37858
G1 X144.096 Y123.276 E26.40121
G1 X143.431 Y123.425 E26.42388
G1 X142.5 Y123.5 E26.45494
G1 X92.5 Y123.5 E28.11795
G1 X91.82 Y123.46 E28.14061
G1 X91.15 Y123.341 E28.16324
G1 X90.498 Y123.144 E28.18589
G1 X89.874 Y122.872 E28.20853
G1 X89.286 Y122.528 E28.23119
G1 X88.742 Y122.118 E28.25385
G1 X88.251 Y121.647 E28.27648
G1 X87.817 Y121.122 E28.29913
G1 X87.448 Y120.55 E28.32177
G1 X87.149 Y119.938 E28.34443
G1 X86.924 Y119.296 E28.36705
G1 X86.775 Y118.631 E28.38972
G1 X86.7 Y117.7 E28.42079
G1 X86.7 Y117.3 E28.43409
G1 X86.74 Y116.62 E28.45675
G1 X86.859 Y115.95 E28.47938
G1 X87.056 Y115.298 E28.50203
G1 X87.328 Y114.674 E28.52467
G1 X87.672 Y114.086 E28.54733
G1 X88.082 Y113.542 E28.56999
G1 X88.553 Y113.051 E28.59262
G1 X89.078 Y112.617 E28.61527
G1 X89.65 Y112.248 E28.63791
G0 F6000 X90.029 Y112.498
G1 F1200 X90.631 Y112.234 E28.65978
G1 X91.26 Y112.044 E28.68163
G1 X91.907 Y111.933 E28.70346
G1 X92.5 Y111.9 E28.72322
G1 X142.5 Y111.9 E30.38622
G1 X143.156 Y111.94 E30.40808
G1 X143.802 Y112.059 E30.42993
G1 X144.429 Y112.256 E30.45179
G1 X145.027 Y112.528 E30.47364
G1 X145.588 Y112.87 E30.49549
G1 X146.103 Y113.278 E30.51735
G1 X146.565 Y113.745 E30.5392
G1 X146.966 Y114.265 E30.56104
G1 X147.302 Y114.829 E30.58287
G1 X147.566 Y115.431 E30.60473
G1 X147.756 Y116.06 E30.62659
G1 X147.867 Y116.707 E30.64842
G1 X147.9 Y117.3 E30.66818
G1 X147.9 Y117.7 E30.68148
G1 X147.86 Y118.356 E30.70334
G1 X147.741 Y119.002 E30.72519
G1 X147.544 Y119.629 E30.74705
G1 X147.272 Y120.227 E30.7689
G1 X146.93 Y120.788 E30.79075
G1 X146.522 Y121.303 E30.8126
G1 X146.055 Y121.765 E30.83445
G1 X145.535 Y122.166 E30.85629
G1 X144.971 Y122.502 E30.87813
G1 X144.369 Y122.766 E30.89999
G1 X143.74 Y122.956 E30.92185
G1 X143.093 Y123.067 E30.94368
G1 X142.5 Y123.1 E30.96343
G1 X92.5 Y123.1 E32.62644
G1 X91.844 Y123.06 E32.6483
G1 X91.198 Y122.941 E32.67015
G1 X90.571 Y122.744 E32.69201
G1 X89.973 Y122.472 E32.71386
G1 X89.412 Y122.13 E32.73571
G1 X88.897 Y121.722 E32.75756
G1 X88.435 Y121.255 E32.77941
G1 X88.034 Y120.735 E32.80125
G1 X87.698 Y120.171 E32.82309
G1 X87.434 Y119.569 E32.84495
G1 X87.244 Y118.94 E32.8668
G1 X87.133 Y118.293 E32.88864
G1 X87.1 Y117.7 E32.90839
G1 X87.1 Y117.3 E32.9217
G1 X87.14 Y116.644 E32.94355
G1 X87.259 Y115.998 E32.9654
G1 X87.456 Y115.371 E32.98726
G1 X87.728 Y114.773 E33.00911
G1 X88.07 Y114.212 E33.03096
G1 X88.478 Y113.697 E33.05282
G1 X88.945 Y113.235 E33.07467
G1 X89.465 Y112.834 E33.09651
G1 X90.029 Y112.498 E33.11834
G0 F6000 X90.406 Y112.76
G1 F1200 X90.995 Y112.532 E33.13935
G1 X91.609 Y112.38 E33.16039
G1 X92.5 Y112.3 E33.19014
G1 X142.5 Y112.3 E34.85315
G1 X143.131 Y112.34 E34.87418
G1 X143.752 Y112.459 E34.89521
G1 X144.352 Y112.656 E34.91621
G1 X144.924 Y112.927 E34.93726
G1 X145.456 Y113.267 E34.95826
G1 X145.941 Y113.673 E34.9793
G1 X146.371 Y114.136 E35.00032
G1 X146.74 Y114.65 E35.02136
G1 X147.04 Y115.206 E35.04237
G1 X147.268 Y115.795 E35.06338
G1 X147.42 Y116.409 E35.08442
G1 X147.5 Y117.3 E35.11417
G1 X147.5 Y117.7 E35.12748
G1 X147.46 Y118.331 E35.14851
G1 X147.341 Y118.952 E35.16954
G1 X147.144 Y119.552 E35.19054
G1 X146.873 Y120.124 E35.21159
G1 X146.533 Y120.656 E35.23259
G1 X146.127 Y121.141 E35.25363
G1 X145.664 Y121.571 E35.27465
G1 X145.15 Y121.94 E35.29569
G1 X144.594 Y122.24 E35.3167
G1 X144.005 Y122.468 E35.33771
G1 X143.391 Y122.62 E35.35875
G1 X142.5 Y122.7 E35.3885
G1 X92.5 Y122.7 E37.05151
G1 X91.869 Y122.66 E37.07254
G1 X91.248 Y122.541 E37.09357
G1 X90.648 Y122.344 E37.11457
G1 X90.076 Y122.073 E37.13563
G1 X89.544 Y121.733 E37.15662
G1 X89.059 Y121.327 E37.17766
G1 X88.629 Y120.864 E37.19868
G1 X88.26 Y120.35 E37.21972
G1 X87.96 Y119.794 E37.24074
G1 X87.732 Y119.205 E37.26174
G1 X87.58 Y118.591 E37.28278
G1 X87.5 Y117.7 E37.31253
G1 X87.5 Y117.3 E37.32584
G1 X87.54 Y116.669 E37.34687
G1 X87.659 Y116.048 E37.3679
G1 X87.856 Y115.448 E37.3889
G1 X88.127 Y114.876 E37.40995
G1 X88.467 Y114.344 E37.43095
G1 X88.873 Y113.859 E37.45199
G1 X89.336 Y113.429 E37.47301
G1 X89.85 Y113.06 E37.49405
G1 X90.406 Y112.76 E37.51507
G0 F6000 X90.778 Y113.034
G1 F1200 X91.354 Y112.845 E37.53523
G1 X91.95 Y112.733 E37.5554
G1 X92.5 Y112.7 E37.57372
G1 X142.5 Y112.7 E39.23673
G1 X143.105 Y112.74 E39.2569
G1 X143.699 Y112.859 E39.27705
G1 X144.273 Y113.055 E39.29722
G1 X144.816 Y113.326 E39.3174
G1 X145.319 Y113.665 E39.33758
